X:270
T:French Assembly
C:Welch MS
M:3/8
L:1/8
Q:60
K:G
c2cBcA|B2BABG|A2AFAF|G2E2E2|
c2cBcA|B2BABG|A2AFAF|G6|
c2cBcA|B2BABG|A2AFAF|G2E2E2|
c2cBcA|B2BABG|A2AFAF|G6
|:G2gfg2|G2gfg2|agfedc|BcdBG2|
G2gfg2|G2gfg2|fafde^c|d6|
c2cBcA|B2BABG|A2AFAF|G2E2E2|
c2cBcA|B2BABG|A2AFAF|G6:|
